X:270
T:Polska efter Jonas Hansson
T:ur Carl-Erik Södlings samlingar (SmM I:270)
R:Polska
O:Bolmsö, Småland
S:Jonas Hansson
N:1874
B:Småländsk Musiktradition
M:3/4
L:1/8
K:Ddor
D2 F>G E>F|D>E F>G A2|A2 c>d B>d|{/e}d>c A2 z2:|
|:A2 c>d B>d|{/e}d>c A>G G2|E2 F>G E>G|{/A}G>F D>C D2|D2 F>G E>G|{/A}G>F D2 z2:|

